X:0800
T:Todlen Hame.
M:6/8
L:1/8
Q:3/8=80 "Slow"
I: || |:$ $:| (i.e. segno signs at each end of the last part)
Z:Jack Campin * www.campin.me.uk * 2009
K:D
(e/>f/)|f>ed B>cd|A>Bd       ede      |f>ed B>cd|A>Bd d2||
 d     |g>ag f2 f|e>f (g/f/) e2 (d/e/)|f>ed B>cd|A>Bd d3||
      |:f>ed B>cd|A>Bd       ede      |f>ed B>cd|ABd  d2:|<end>
<start>
